src/shared/_assets/icons/sparkles.svg

<svg width="19" height="19" viewBox="0 0 19 19" fill="none" xmlns="http://www.w3.org/2000/svg">
<path d="M15 6.66667L13.9583 4.375L11.6667 3.33333L13.9583 2.29167L15 0L16.0417 2.29167L18.3333 3.33333L16.0417 4.375L15 6.66667ZM15 18.3333L13.9583 16.0417L11.6667 15L13.9583 13.9583L15 11.6667L16.0417 13.9583L18.3333 15L16.0417 16.0417L15 18.3333ZM6.66667 15.8333L4.58333 11.25L0 9.16667L4.58333 7.08333L6.66667 2.5L8.75 7.08333L13.3333 9.16667L8.75 11.25L6.66667 15.8333ZM6.66667 11.7917L7.5 10L9.29167 9.16667L7.5 8.33333L6.66667 6.54167L5.83333 8.33333L4.04167 9.16667L5.83333 10L6.66667 11.7917Z" fill="#98C95C"/>
</svg>

<svg xmlns="http://www.w3.org/2000/svg" fill="none" viewBox="0 0 19 19"><path fill="currentColor" d="m15 6.667-1.042-2.292-2.291-1.042 2.291-1.041L15 0l1.042 2.292 2.291 1.041-2.291 1.042zm0 11.666-1.042-2.291L11.667 15l2.291-1.042L15 11.667l1.042 2.291L18.333 15l-2.291 1.042zm-8.333-2.5L4.583 11.25 0 9.167l4.583-2.084L6.667 2.5 8.75 7.083l4.583 2.084L8.75 11.25zm0-4.041L7.5 10l1.792-.833L7.5 8.333l-.833-1.791-.834 1.791-1.791.834L5.833 10z"/></svg>
